svgs/light/ruler-combined.svg

<svg xmlns="http://www.w3.org/2000/svg" viewBox="0 0 512 512"><!--! Font Awesome Pro 6.4.0 by @fontawesome - https://fontawesome.com License - https://fontawesome.com/license (Commercial License) Copyright 2023 Fonticons, Inc. --><path d="M192 192V128l-64 0c-8.8 0-16-7.2-16-16s7.2-16 16-16l64 0 0-32c0-17.7-14.3-32-32-32L64 32C46.3 32 32 46.3 32 64l0 288 0 96c0 1.1 .1 2.2 .2 3.3C33.8 467.4 47.5 480 64 480h96l288 0c17.7 0 32-14.3 32-32l0-96c0-17.7-14.3-32-32-32H416v64c0 8.8-7.2 16-16 16s-16-7.2-16-16V320H320v64c0 8.8-7.2 16-16 16s-16-7.2-16-16V320H224v64c0 8.8-7.2 16-16 16s-16-7.2-16-16V320H128c-8.8 0-16-7.2-16-16s7.2-16 16-16h64V224l-64 0c-8.8 0-16-7.2-16-16s7.2-16 16-16h64zm64 96H448c35.3 0 64 28.7 64 64v96c0 35.3-28.7 64-64 64l-288 0H64C30.9 512 3.6 486.8 .3 454.5c-.2-2.2-.3-4.3-.3-6.5V352 64C0 28.7 28.7 0 64 0h96c35.3 0 64 28.7 64 64l0 192v32h32z"/></svg>

<svg xmlns="http://www.w3.org/2000/svg" viewBox="0 0 512 512"><!--! Font Awesome Pro 6.3.0 by @fontawesome - https://fontawesome.com License - https://fontawesome.com/license (Commercial License) Copyright 2023 Fonticons, Inc. --><path d="M448 288C483.3 288 512 316.7 512 352V448C512 483.3 483.3 512 448 512H64C30.86 512 3.608 486.8 .3306 454.5C.112 452.4 0 450.2 0 448V64C0 28.65 28.65 0 64 0H160C195.3 0 224 28.65 224 64V288H448zM192 192V128H128C119.2 128 112 120.8 112 112C112 103.2 119.2 96 128 96H192V64C192 46.33 177.7 32 160 32H64C46.33 32 32 46.33 32 64V448C32 449.1 32.06 450.2 32.17 451.3C33.8 467.4 47.45 480 64 480H448C465.7 480 480 465.7 480 448V352C480 334.3 465.7 320 448 320H416V384C416 392.8 408.8 400 400 400C391.2 400 384 392.8 384 384V320H320V384C320 392.8 312.8 400 304 400C295.2 400 288 392.8 288 384V320H224V384C224 392.8 216.8 400 208 400C199.2 400 192 392.8 192 384V320H128C119.2 320 112 312.8 112 304C112 295.2 119.2 288 128 288H192V224H128C119.2 224 112 216.8 112 208C112 199.2 119.2 192 128 192H192z"/></svg>
